X: 1
T: Snug in a Blanket
C:
R: jig
Z: 2014 John Chambers <jc:trillian.mit.edu>
S: Page from Concord Slow Scottish Session collection
S: Anna-Wendy Stevenson, Boston Harbor Scottish Fiddle School, August 2009
N: Chords: Barbara McOwen
M: 6/8
L: 1/8
K: D
|:\
"A"e2(f g)fg | AAA (g2e) | "D"faf "A7"gec | "D"dcd (f2d) |
"A"e2(f g)fg | AAA (g2e) | "D"faf "A7"gec | "D"dfe d3 :|
|:\
"A"c2d eAA | eA(f e)cA | "A"c2d ecA | "Bm"Bcd "E"f2e |
"A"c2d eAA | eA(f e)cA | "D"faf "A7"gec | "D"dfe d3 :|
